resource/open-source.svg

<svg clip-rule="evenodd" fill-rule="evenodd" height="14" stroke-linejoin="round" stroke-miterlimit="2" viewBox="-1 -1 37 37" width="14" xmlns="http://www.w3.org/2000/svg"><circle cx="17.5" cy="17.5" fill="#fff" r="18.5"/><path d="m17.5 0c9.659 0 17.5 7.841 17.5 17.5s-7.841 17.5-17.5 17.5-17.5-7.841-17.5-17.5 7.841-17.5 17.5-17.5zm8.542 20.372.456-2.362c-1.124-.662-1.863-.929-2.068-1.929v-.001c-.206-1.003.373-1.545 1.141-2.59l-1.348-1.992c-1.245.323-1.972.662-2.828.097h-.001c-.853-.563-.827-1.354-1.022-2.637l-2.362-.456c-.656 1.113-.927 1.862-1.929 2.068h-.001c-1.003.207-1.544-.372-2.59-1.141l-1.992 1.348c.324 1.251.662 1.973.097 2.828-.564.855-1.36.828-2.637 1.023l-.456 2.362c1.111.654 1.862.927 2.068 1.929.207 1.012-.388 1.567-1.141 2.59l1.348 1.993c1.246-.323 1.973-.662 2.828-.097h.001c.854.564.827 1.356 1.022 2.637l2.362.456c.656-1.114.927-1.861 1.936-2.07v.001c.996-.206 1.535.372 2.583 1.143l1.992-1.349c-.324-1.247-.662-1.972-.098-2.828.565-.855 1.364-.829 2.639-1.023zm-9.106.051c-1.614-.311-2.671-1.872-2.359-3.487.311-1.614 1.872-2.671 3.487-2.359 1.614.311 2.671 1.872 2.359 3.487-.311 1.614-1.872 2.671-3.487 2.359z" fill="#2f2f2f"/></svg>

<?xml version="1.0" encoding="UTF-8" standalone="no"?>
<!DOCTYPE svg PUBLIC "-//W3C//DTD SVG 1.1//EN" "http://www.w3.org/Graphics/SVG/1.1/DTD/svg11.dtd">
<svg width="14" height="14" viewBox="-1 -1 37 37" version="1.1" xmlns="http://www.w3.org/2000/svg" xmlns:xlink="http://www.w3.org/1999/xlink" xml:space="preserve" xmlns:serif="http://www.serif.com/" style="fill-rule:evenodd;clip-rule:evenodd;stroke-linejoin:round;stroke-miterlimit:2;">
    <circle cx="17.5" cy="17.5" r="18.5" fill="white"/>
    <path d="M17.5,0C27.159,0 35,7.841 35,17.5C35,27.159 27.159,35 17.5,35C7.841,35 0,27.159 0,17.5C0,7.841 7.841,0 17.5,0ZM26.042,20.372L26.498,18.01C25.374,17.348 24.635,17.081 24.43,16.081L24.43,16.08C24.224,15.077 24.803,14.535 25.571,13.49L24.223,11.498C22.978,11.821 22.251,12.16 21.395,11.595L21.394,11.595C20.541,11.032 20.567,10.241 20.372,8.958L18.01,8.502C17.354,9.615 17.083,10.364 16.081,10.57L16.08,10.57C15.077,10.777 14.536,10.198 13.49,9.429L11.498,10.777C11.822,12.028 12.16,12.75 11.595,13.605C11.031,14.46 10.235,14.433 8.958,14.628L8.502,16.99C9.613,17.644 10.364,17.917 10.57,18.919C10.777,19.931 10.182,20.486 9.429,21.509L10.777,23.502C12.023,23.179 12.75,22.84 13.605,23.405L13.606,23.405C14.46,23.969 14.433,24.761 14.628,26.042L16.99,26.498C17.646,25.384 17.917,24.637 18.926,24.428L18.926,24.429C19.922,24.223 20.461,24.801 21.509,25.572L23.501,24.223C23.177,22.976 22.839,22.251 23.403,21.395C23.968,20.54 24.767,20.566 26.042,20.372ZM16.936,20.423C15.322,20.112 14.265,18.551 14.577,16.936C14.888,15.322 16.449,14.265 18.064,14.577C19.678,14.888 20.735,16.449 20.423,18.064C20.112,19.678 18.551,20.735 16.936,20.423Z" style="fill:rgb(47,47,47);"/>
</svg>
